X: 16770
T: Härjedalsschottis
R: barndance
M: 4/4
K: Aminor
|:D>C D>E F2 F>G|A>G B>G A2 A2|c>d c>B G2 (G2|G>)B d>A F2 F2|
D>C D>E F2 F>G|A>G B>G A2 A2|c>d c>B G2 E>C|D2 D>C D4:|
|:d>e d>B c>d c>A|B>d B>G A2 A2|D>C D>E F2 F>G|A>G B>G A2 A2|
d>e d>B c>d c>A|B>d B>G A2 A2|D>C D>E F>G F>D|E2 C2 D4:|

